public/logo.svg

<svg width="390" height="340" viewBox="0 0 390 340" fill="none" xmlns="http://www.w3.org/2000/svg">
<path d="M31.5918 96.2207C26.0254 96.2207 21.1589 95.4069 16.9922 93.7793C12.8581 92.1191 9.60286 89.7591 7.22656 86.6992C4.85026 83.6068 3.51562 79.8958 3.22266 75.5664L3.17383 74.7852H17.0898L17.1875 75.3223C17.513 77.1452 18.3268 78.724 19.6289 80.0586C20.9635 81.3607 22.6888 82.3861 24.8047 83.1348C26.9206 83.8509 29.3132 84.209 31.9824 84.209C34.7168 84.209 37.0605 83.8509 39.0137 83.1348C40.9993 82.3861 42.5293 81.3444 43.6035 80.0098C44.7103 78.6426 45.2637 77.0638 45.2637 75.2734V75.2246C45.2637 72.8483 44.3197 70.9928 42.4316 69.6582C40.5762 68.291 37.4512 67.1517 33.0566 66.2402L25.6348 64.7754C18.7012 63.3757 13.4766 61.0156 9.96094 57.6953C6.44531 54.375 4.6875 50.0618 4.6875 44.7559V44.707C4.6875 40.4102 5.8431 36.6667 8.1543 33.4766C10.4655 30.2539 13.6393 27.7637 17.6758 26.0059C21.7122 24.2155 26.3346 23.3203 31.543 23.3203C36.9792 23.3203 41.6667 24.1667 45.6055 25.8594C49.5768 27.5521 52.6693 29.9447 54.8828 33.0371C57.0964 36.1296 58.3171 39.7266 58.5449 43.8281L58.5938 44.7559H44.6777L44.6289 44.1699C44.3685 42.3145 43.6686 40.7357 42.5293 39.4336C41.39 38.099 39.8763 37.0736 37.9883 36.3574C36.1328 35.6413 33.9844 35.2832 31.543 35.2832C29.0365 35.2832 26.8717 35.6576 25.0488 36.4062C23.2259 37.1224 21.8262 38.1152 20.8496 39.3848C19.9056 40.6543 19.4336 42.1354 19.4336 43.8281V43.877C19.4336 46.0905 20.3776 47.8809 22.2656 49.248C24.1536 50.6152 27.1159 51.7057 31.1523 52.5195L38.623 54.0332C43.5384 55.0098 47.5749 56.3607 50.7324 58.0859C53.89 59.8112 56.2174 61.9922 57.7148 64.6289C59.2448 67.2331 60.0098 70.3743 60.0098 74.0527V74.1016C60.0098 78.6263 58.8704 82.5488 56.5918 85.8691C54.3457 89.1569 51.0905 91.7122 46.8262 93.5352C42.5944 95.3255 37.5163 96.2207 31.5918 96.2207Z" fill="black"/>
<path d="M57.8594 95V24.541H86.9609C92.2344 24.541 96.7428 25.4362 100.486 27.2266C104.262 29.0169 107.143 31.6048 109.129 34.9902C111.147 38.3431 112.156 42.3796 112.156 47.0996V47.1973C112.156 51.8197 111.001 55.9375 108.689 59.5508C106.411 63.1641 103.318 65.7357 99.4121 67.2656L114.256 95H97.5566L84.4219 69.4629C84.3242 69.4629 84.2103 69.4629 84.0801 69.4629C83.9499 69.4629 83.8197 69.4629 83.6895 69.4629H72.6055V95H57.8594ZM72.6055 58.2812H85.3496C89.028 58.2812 91.8926 57.3047 93.9434 55.3516C96.0267 53.3659 97.0684 50.6478 97.0684 47.1973V47.0996C97.0684 43.7142 95.9941 41.0286 93.8457 39.043C91.6973 37.0573 88.8001 36.0645 85.1543 36.0645H72.6055V58.2812Z" fill="black"/>
<path d="M166.408 96.2207C171.975 96.2207 176.841 95.4069 181.008 93.7793C185.142 92.1191 188.397 89.7591 190.773 86.6992C193.15 83.6068 194.484 79.8958 194.777 75.5664L194.826 74.7852H180.91L180.812 75.3223C180.487 77.1452 179.673 78.724 178.371 80.0586C177.036 81.3607 175.311 82.3861 173.195 83.1348C171.079 83.8509 168.687 84.209 166.018 84.209C163.283 84.209 160.939 83.8509 158.986 83.1348C157.001 82.3861 155.471 81.3444 154.396 80.0098C153.29 78.6426 152.736 77.0638 152.736 75.2734V75.2246C152.736 72.8483 153.68 70.9928 155.568 69.6582C157.424 68.291 160.549 67.1517 164.943 66.2402L172.365 64.7754C179.299 63.3757 184.523 61.0156 188.039 57.6953C191.555 54.375 193.312 50.0618 193.312 44.7559V44.707C193.312 40.4102 192.157 36.6667 189.846 33.4766C187.535 30.2539 184.361 27.7637 180.324 26.0059C176.288 24.2155 171.665 23.3203 166.457 23.3203C161.021 23.3203 156.333 24.1667 152.395 25.8594C148.423 27.5521 145.331 29.9447 143.117 33.0371C140.904 36.1296 139.683 39.7266 139.455 43.8281L139.406 44.7559H153.322L153.371 44.1699C153.632 42.3145 154.331 40.7357 155.471 39.4336C156.61 38.099 158.124 37.0736 160.012 36.3574C161.867 35.6413 164.016 35.2832 166.457 35.2832C168.964 35.2832 171.128 35.6576 172.951 36.4062C174.774 37.1224 176.174 38.1152 177.15 39.3848C178.094 40.6543 178.566 42.1354 178.566 43.8281V43.877C178.566 46.0905 177.622 47.8809 175.734 49.248C173.846 50.6152 170.884 51.7057 166.848 52.5195L159.377 54.0332C154.462 55.0098 150.425 56.3607 147.268 58.0859C144.11 59.8112 141.783 61.9922 140.285 64.6289C138.755 67.2331 137.99 70.3743 137.99 74.0527V74.1016C137.99 78.6263 139.13 82.5488 141.408 85.8691C143.654 89.1569 146.91 91.7122 151.174 93.5352C155.406 95.3255 160.484 96.2207 166.408 96.2207Z" fill="black"/>
<line x1="106" y1="86.5" x2="144" y2="86.5" stroke="black" stroke-width="5"/>
<path d="M112.667 74.6667L109.167 71.1667H104.5C104.19 71.1667 103.894 71.2896 103.675 71.5084C103.456 71.7272 103.333 72.0239 103.333 72.3334V81.6667C103.333 81.9761 103.456 82.2729 103.675 82.4916C103.894 82.7104 104.19 82.8334 104.5 82.8334H111.5C111.809 82.8334 112.106 82.7104 112.325 82.4916C112.544 82.2729 112.667 81.9761 112.667 81.6667V74.6667ZM109.167 71.1667L109.167 74.6667H112.667M110.333 77.5834H105.667M110.333 79.9167H105.667M106.833 75.25H105.667" stroke="black" stroke-width="1.6" stroke-linecap="round" stroke-linejoin="round"/>
<path d="M118 83.8334C117.587 83.8334 117.234 83.6783 116.941 83.3683C116.647 83.0582 116.5 82.6854 116.5 82.25V72.75C116.5 72.3146 116.647 71.9419 116.941 71.6318C117.234 71.3217 117.587 71.1667 118 71.1667H122.5L124 72.75H130C130.413 72.75 130.766 72.9051 131.059 73.2151C131.353 73.5252 131.5 73.8979 131.5 74.3334V82.25C131.5 82.6854 131.353 83.0582 131.059 83.3683C130.766 83.6783 130.413 83.8334 130 83.8334H118ZM118 82.25H130V74.3334H123.381L121.881 72.75H118V82.25Z" fill="black"/>
<path d="M136 83.8334C135.587 83.8334 135.234 83.6783 134.941 83.3683C134.647 83.0582 134.5 82.6854 134.5 82.25V72.75C134.5 72.3146 134.647 71.9419 134.941 71.6318C135.234 71.3217 135.587 71.1667 136 71.1667H140.5L142 72.75H148C148.413 72.75 148.766 72.9051 149.059 73.2151C149.353 73.5252 149.5 73.8979 149.5 74.3334V82.25C149.5 82.6854 149.353 83.0582 149.059 83.3683C148.766 83.6783 148.413 83.8334 148 83.8334H136ZM136 82.25H148V74.3334H141.381L139.881 72.75H136V82.25Z" fill="black"/>
</svg>

<svg width="198" height="100" viewBox="0 0 198 100" fill="none" xmlns="http://www.w3.org/2000/svg">
  <!-- S -->
  <path d="M31.592 96.22q-8.35 0 -14.6 -2.44 -6.202 -2.49 -9.765 -7.08 -3.565 -4.64 -4.004 -11.134l-0.05 -0.78H17.09l0.098 0.536a8.87 8.87 0 0 0 2.44 4.737q2.002 1.953 5.177 3.076 3.174 1.074 7.177 1.074 4.102 0 7.032 -1.074 2.977 -1.123 4.59 -3.125 1.66 -2.05 1.66 -4.737v-0.048q0 -3.565 -2.832 -5.567 -2.783 -2.05 -9.375 -3.418l-7.422 -1.465q-10.4 -2.1 -15.674 -7.08t-5.273 -12.94v-0.048q0 -6.445 3.466 -11.23 3.467 -4.834 9.522 -7.471 6.055 -2.686 13.867 -2.686 8.154 0 14.063 2.54 5.956 2.538 9.277 7.177 3.32 4.64 3.662 10.791l0.049 0.928H44.678l-0.05 -0.586q-0.39 -2.783 -2.099 -4.736 -1.709 -2.002 -4.54 -3.077 -2.784 -1.074 -6.446 -1.074 -3.76 0 -6.494 1.123 -2.734 1.075 -4.2 2.979 -1.415 1.904 -1.415 4.443v0.049q0 3.32 2.832 5.371 2.832 2.05 8.886 3.272l7.471 1.513q7.373 1.466 12.11 4.053 4.735 2.587 6.982 6.543 2.295 3.906 2.295 9.424v0.049q0 6.786 -3.418 11.767 -3.369 4.932 -9.766 7.666 -6.348 2.686 -15.234 2.686" fill="#000"/>

  <!-- R -->
  <path d="M57.86 95V24.541h29.1q7.911 0 13.526 2.686 5.664 2.685 8.643 7.763 3.027 5.03 3.027 12.11v0.097q0 6.934 -3.467 12.354 -3.417 5.42 -9.277 7.715L114.256 95h-16.7L84.423 69.463H72.606V95zm14.746 -36.719H85.35q5.517 0 8.593 -2.93 3.126 -2.977 3.125 -8.154V47.1q0 -5.078 -3.222 -8.057t-8.692 -2.978H72.606z" fill="#000"/>

  <!-- line -->
  <path stroke="#000" stroke-width="5" d="M106 86.5h38"/>

  <!-- file icon -->
  <path d="m112.667 74.667 -3.5 -3.5H104.5a1.166 1.166 0 0 0 -1.167 1.166v9.334a1.166 1.166 0 0 0 1.167 1.166h7a1.17 1.17 0 0 0 1.167 -1.166zm-3.5 -3.5v3.5h3.5m-2.334 2.916h-4.666m4.666 2.334h-4.666m1.166 -4.667h-1.166" stroke="#000" stroke-width="1.6" stroke-linecap="round" stroke-linejoin="round"/>

  <!-- folders icon -->
  <path d="M118 83.833q-0.62 0 -1.059 -0.465a1.57 1.57 0 0 1 -0.441 -1.118v-9.5q0 -0.653 0.441 -1.118 0.44 -0.465 1.059 -0.465h4.5l1.5 1.583h6q0.62 0 1.059 0.465 0.441 0.465 0.441 1.118v7.917q0 0.653 -0.441 1.118 -0.44 0.465 -1.059 0.465zm0 -1.583h12v-7.917h-6.619l-1.5 -1.583H118zm18 1.583q-0.62 0 -1.059 -0.465a1.57 1.57 0 0 1 -0.441 -1.118v-9.5q0 -0.653 0.441 -1.118 0.44 -0.465 1.059 -0.465h4.5l1.5 1.583h6q0.62 0 1.059 0.465 0.441 0.465 0.441 1.118v7.917q0 0.653 -0.441 1.118 -0.44 0.465 -1.059 0.465zm0 -1.583h12v-7.917h-6.619l-1.5 -1.583H136z" fill="#000"/>

  <!-- S -->
  <path d="M166.408 96.22q8.35 0 14.6 -2.44 6.201 -2.49 9.765 -7.08 3.565 -4.64 4.004 -11.134l0.049 -0.78H180.91l-0.098 0.536a8.87 8.87 0 0 1 -2.441 4.737q-2.002 1.953 -5.176 3.076 -3.174 1.074 -7.177 1.074 -4.103 0 -7.032 -1.074 -2.977 -1.123 -4.59 -3.125 -1.66 -2.05 -1.66 -4.737v-0.048q0 -3.565 2.832 -5.567 2.784 -2.05 9.375 -3.418l7.422 -1.465q10.4 -2.1 15.674 -7.08t5.273 -12.94v-0.048q0 -6.445 -3.466 -11.23 -3.466 -4.834 -9.522 -7.471 -6.054 -2.686 -13.867 -2.686 -8.154 0 -14.062 2.54 -5.958 2.538 -9.278 7.177 -3.32 4.64 -3.662 10.791l-0.049 0.928h13.916l0.049 -0.586q0.39 -2.783 2.1 -4.736 1.709 -2.002 4.541 -3.077 2.783 -1.074 6.445 -1.074 3.76 0 6.494 1.123 2.735 1.075 4.199 2.979 1.416 1.904 1.416 4.443v0.049q0 3.32 -2.832 5.371 -2.832 2.05 -8.886 3.272l-7.471 1.513q-7.373 1.466 -12.109 4.053 -4.737 2.587 -6.983 6.543 -2.295 3.906 -2.295 9.424v0.049q0 6.786 3.418 11.767 3.37 4.932 9.766 7.666 6.348 2.686 15.234 2.686" fill="#000"/>
</svg>
